X: 15
T:Leaping Lizzie
R:Reel
M:4/4
L:1/8
N:Jim Mullaney
H:Seet Nell, Coal Holler CD 0246
K:C
|z6 AB|:c2AG EGAB|cBAG EGAB|cBcd egec|AF3 F2 AB|
c2 AG EGAB|cBcd egeg|aged cAGG|A2[G2c]A[G3c]::A6
A2|ABAG EGAB|
cBAG E2 ag|[e2A][g2c][eA][g3c]|A6 A2|ABAG
EGAB|cBAG E2eg|age2[c4E4]:|

